X:610
%%etbk:tnset id:356,pos:2,rep:3x,ant:
%%etbk:pldat 2016-09-04T14:52,2014-12-14T15:45,2014-12-04T19:17,2014-12-01T19:05,2014-11-24T14:39,2014-11-10T18:23,2014-11-09T14:55,2014-10-19T15:19,2014-10-12T15:13,2014-10-11T15:24,2014-10-10T16:36,2014-10-09T10:59,2014-10-05T15:28,2014-10-03T15:55,2014-09-30T11:11,2014-09-25T19:03,2014-09-24T16:31
T: Blind Harper's  2
Z: Piano Box Version by Martin Fleischmann
H: Created 2014-09-22 /  Last Modified 2014-09-30
R: strathspey
M: 4/4
L: 1/8
K: Ador
B|:"am"!4!A/B/A A>G !2!E2 E>D|!3!G<A !2!E>!1!D !1!C>D !3!E<!1!C| !3!A/!2!A/!3!A !1!A>B c>!4!d !2!e<a| "G"!4!ge !1!d<!2!B "am"!1!A2 A2:|
B|:"am"!3!A/!2!A/!1!A !1!A>B c>!4!d !2!e<a| "G"!4!g!1!d !2!e<g !2!d<g !1!B!4!g| "am"!1!A/!2!A/!1!A !1!A>B c>d e<a| "G"ge d<B "am"A2 A2:|


